X: 25032
T: Maiden That Jigged It In Style, The
R: jig
M: 6/8
K: Adorian
|:e|dcA GEG|GEG G2 A|B/c/de ede|cAA Age|
dcA GEG|GEG G2 A|B/c/de ede|cAA A2:|
|:f|~g3 ged|cAB c2 d|eaa age|ged deg|
age =fed|cAB c2 d|ede ged|cAA A2:|

